X: 71
T:Mary O'Neill
R:Jig
C:O'Carolan
Z:Modified version. alf.warnock@rogers.com
M:6/8
L:1/8
K:D
|:dAG F2D|EGE F2D|dAG F2D|ECE GFE|
dAG F2D|EGE F2D|GAB =cBA|GE=C EGE:|
|:f2f dfd|afd ege|f2f dfd|ged efg|[1 f2f dfd|
afd ege|fed =cBA|GE=C EFG:|[2 fed edc|d=cB cBA|
GAB =cBA|GE=C EGE::FED d2D|FED d2D|
FED d2D|GEC EGE|FED d2A|e2A f2A|
fed =cBA|GE=C EFG:|

